flaticon/outdoor/hunting-trophy.svg

<svg xmlns="http://www.w3.org/2000/svg" width="32" height="32" viewBox="0 0 24 24">
    <path d="M 23.941406 7.285156 C 24.089844 6.589844 23.953125 5.914062 23.554688 5.328125 C 23.527344 5.261719 23.433594 4.910156 23.703125 3.667969 C 23.792969 3.246094 23.664062 2.808594 23.359375 2.5 C 23.019531 2.164062 22.527344 2.042969 22.070312 2.1875 C 21.621094 2.324219 21.292969 2.695312 21.210938 3.152344 C 21.09375 3.78125 21.078125 4.5 21.148438 5.109375 C 21.117188 5.09375 21.085938 5.082031 21.054688 5.066406 C 20.679688 4.898438 20.25 4.933594 19.902344 5.160156 C 19.542969 5.390625 19.332031 5.78125 19.332031 6.230469 C 19.332031 6.664062 19.5625 7.0625 19.945312 7.300781 C 20.144531 7.421875 20.40625 7.632812 20.6875 7.898438 C 20.230469 8.308594 19.628906 8.746094 18.9375 9.171875 L 18.9375 5.976562 C 18.9375 5.769531 18.785156 5.597656 18.582031 5.570312 C 15.570312 5.1875 13.472656 4.109375 12.246094 3.277344 C 12.105469 3.183594 11.925781 3.183594 11.785156 3.277344 C 10.558594 4.109375 8.460938 5.1875 5.445312 5.570312 C 5.242188 5.597656 5.089844 5.769531 5.089844 5.976562 L 5.089844 9.1875 C 4.390625 8.757812 3.777344 8.316406 3.316406 7.898438 C 3.59375 7.632812 3.855469 7.421875 4.058594 7.296875 C 4.441406 7.0625 4.667969 6.664062 4.667969 6.203125 C 4.667969 5.78125 4.457031 5.390625 4.101562 5.160156 C 3.753906 4.933594 3.324219 4.898438 2.949219 5.066406 C 2.917969 5.082031 2.886719 5.09375 2.851562 5.109375 C 2.921875 4.5 2.90625 3.78125 2.792969 3.152344 C 2.707031 2.695312 2.378906 2.324219 1.929688 2.1875 C 1.472656 2.042969 0.980469 2.164062 0.644531 2.5 C 0.335938 2.808594 0.207031 3.246094 0.296875 3.671875 C 0.566406 4.910156 0.476562 5.261719 0.445312 5.328125 C 0.046875 5.914062 -0.0898438 6.589844 0.0585938 7.285156 C 0.21875 8.050781 0.734375 8.839844 1.597656 9.640625 L 1.410156 9.640625 C 0.738281 9.640625 0.1875 10.1875 0.1875 10.863281 C 0.1875 11.535156 0.738281 12.085938 1.410156 12.085938 L 5.117188 12.082031 C 5.289062 15.351562 6.820312 18.414062 9.265625 20.335938 C 10.089844 20.984375 10.964844 21.492188 11.867188 21.84375 C 11.914062 21.863281 11.964844 21.875 12.015625 21.875 C 12.066406 21.875 12.117188 21.863281 12.164062 21.84375 C 13.0625 21.492188 13.9375 20.984375 14.761719 20.335938 C 17.207031 18.414062 18.738281 15.351562 18.914062 12.085938 L 22.589844 12.085938 C 23.261719 12.085938 23.8125 11.535156 23.8125 10.863281 C 23.8125 10.1875 23.261719 9.640625 22.589844 9.640625 L 22.402344 9.640625 C 23.265625 8.839844 23.78125 8.050781 23.941406 7.285156 Z M 1.003906 10.863281 C 1.003906 10.636719 1.183594 10.457031 1.410156 10.457031 L 2.722656 10.457031 C 2.898438 10.457031 3.054688 10.34375 3.109375 10.175781 C 3.164062 10.011719 3.109375 9.828125 2.96875 9.722656 C 1.734375 8.792969 1.023438 7.914062 0.855469 7.117188 C 0.753906 6.628906 0.84375 6.175781 1.128906 5.769531 C 1.140625 5.757812 1.148438 5.746094 1.152344 5.734375 C 1.296875 5.472656 1.417969 4.984375 1.09375 3.496094 C 1.0625 3.34375 1.109375 3.1875 1.21875 3.078125 C 1.34375 2.953125 1.519531 2.910156 1.6875 2.964844 C 1.765625 2.988281 1.949219 3.066406 1.988281 3.300781 C 2.164062 4.257812 2.0625 5.382812 1.859375 5.796875 C 1.777344 5.964844 1.820312 6.171875 1.96875 6.292969 C 2.117188 6.410156 2.328125 6.414062 2.476562 6.296875 C 2.71875 6.105469 2.996094 5.9375 3.28125 5.808594 C 3.457031 5.730469 3.601562 5.808594 3.65625 5.84375 C 3.78125 5.921875 3.855469 6.058594 3.855469 6.230469 C 3.855469 6.378906 3.769531 6.519531 3.628906 6.605469 C 3.1875 6.878906 2.691406 7.355469 2.4375 7.617188 C 2.285156 7.773438 2.285156 8.027344 2.4375 8.183594 C 3.0625 8.828125 4.039062 9.539062 5.183594 10.195312 C 5.460938 10.351562 5.777344 10.445312 6.074219 10.519531 C 6.273438 10.570312 6.480469 10.65625 6.695312 10.773438 C 6.828125 10.847656 6.988281 10.839844 7.117188 10.757812 C 7.242188 10.671875 7.3125 10.527344 7.296875 10.375 C 7.253906 9.972656 7.210938 9.660156 7.175781 9.410156 C 7.140625 9.140625 7.113281 8.949219 7.113281 8.824219 L 7.113281 7.671875 C 7.308594 7.738281 7.484375 7.847656 7.601562 7.984375 C 8.199219 8.679688 8.203125 10.347656 8.007812 11.679688 C 7.988281 11.792969 8.023438 11.910156 8.097656 12 C 8.710938 12.726562 9.171875 13.53125 9.414062 13.992188 L 8.675781 14.335938 C 8.105469 13.25 6.992188 11.59375 5.875 11.308594 C 5.785156 11.285156 5.589844 11.269531 5.558594 11.269531 L 1.410156 11.269531 C 1.1875 11.269531 1.003906 11.085938 1.003906 10.863281 Z M 14.257812 19.695312 C 13.542969 20.257812 12.789062 20.707031 12.015625 21.027344 C 11.238281 20.707031 10.484375 20.257812 9.769531 19.695312 C 7.550781 17.953125 6.140625 15.183594 5.9375 12.210938 C 6.660156 12.621094 7.589844 13.917969 8.117188 15.042969 C 8.1875 15.191406 8.332031 15.28125 8.488281 15.28125 C 8.542969 15.28125 8.601562 15.265625 8.65625 15.242188 L 10.136719 14.554688 C 10.339844 14.457031 10.425781 14.214844 10.332031 14.011719 C 10.226562 13.789062 9.6875 12.667969 8.835938 11.617188 C 8.972656 10.589844 9.109375 8.496094 8.21875 7.457031 C 7.867188 7.042969 7.285156 6.789062 6.703125 6.789062 C 6.480469 6.789062 6.296875 6.972656 6.296875 7.195312 L 6.296875 8.824219 C 6.296875 9.003906 6.328125 9.222656 6.367188 9.519531 C 6.378906 9.597656 6.390625 9.679688 6.402344 9.765625 C 6.359375 9.753906 6.316406 9.742188 6.273438 9.730469 C 6.148438 9.699219 6.023438 9.664062 5.902344 9.625 L 5.902344 6.328125 C 8.714844 5.914062 10.742188 4.925781 12.011719 4.101562 C 13.285156 4.925781 15.3125 5.914062 18.125 6.328125 L 18.125 9.609375 C 17.992188 9.65625 17.859375 9.695312 17.722656 9.730469 C 17.679688 9.742188 17.640625 9.753906 17.597656 9.765625 C 17.609375 9.675781 17.621094 9.59375 17.628906 9.519531 C 17.671875 9.21875 17.699219 9.003906 17.699219 8.824219 L 17.699219 7.195312 C 17.699219 6.972656 17.519531 6.789062 17.292969 6.789062 C 16.710938 6.789062 16.132812 7.042969 15.777344 7.457031 C 14.886719 8.492188 15.027344 10.589844 15.160156 11.617188 C 14.316406 12.664062 13.769531 13.789062 13.667969 14.011719 C 13.621094 14.109375 13.617188 14.222656 13.652344 14.324219 C 13.691406 14.425781 13.765625 14.507812 13.863281 14.554688 L 15.339844 15.242188 C 15.394531 15.265625 15.453125 15.277344 15.511719 15.277344 C 15.664062 15.277344 15.8125 15.191406 15.882812 15.042969 C 16.414062 13.898438 17.363281 12.582031 18.09375 12.195312 C 17.890625 15.175781 16.484375 17.949219 14.257812 19.695312 Z M 20.890625 10.175781 C 20.945312 10.34375 21.101562 10.457031 21.277344 10.457031 L 22.589844 10.457031 C 22.816406 10.457031 22.996094 10.636719 22.996094 10.863281 C 22.996094 11.085938 22.816406 11.269531 22.589844 11.269531 L 18.410156 11.273438 C 18.410156 11.273438 18.21875 11.289062 18.125 11.3125 C 17.007812 11.59375 15.894531 13.25 15.324219 14.335938 L 14.585938 13.992188 C 14.832031 13.527344 15.289062 12.730469 15.902344 12 C 15.976562 11.910156 16.011719 11.792969 15.992188 11.679688 C 15.796875 10.347656 15.800781 8.679688 16.398438 7.988281 C 16.515625 7.847656 16.691406 7.738281 16.886719 7.671875 L 16.886719 8.828125 C 16.886719 8.949219 16.859375 9.140625 16.824219 9.40625 C 16.789062 9.65625 16.746094 9.972656 16.703125 10.375 C 16.6875 10.527344 16.757812 10.675781 16.886719 10.757812 C 17.011719 10.84375 17.175781 10.847656 17.304688 10.773438 C 17.523438 10.65625 17.726562 10.574219 17.925781 10.523438 C 18.222656 10.445312 18.539062 10.355469 18.816406 10.195312 C 19.960938 9.542969 20.9375 8.828125 21.5625 8.183594 C 21.714844 8.027344 21.714844 7.773438 21.5625 7.617188 C 21.308594 7.355469 20.816406 6.878906 20.371094 6.605469 C 20.230469 6.519531 20.144531 6.378906 20.144531 6.207031 C 20.144531 6.058594 20.21875 5.925781 20.34375 5.84375 C 20.398438 5.808594 20.542969 5.734375 20.71875 5.8125 C 21.003906 5.9375 21.28125 6.105469 21.523438 6.296875 C 21.671875 6.414062 21.882812 6.414062 22.03125 6.292969 C 22.179688 6.171875 22.222656 5.96875 22.140625 5.796875 C 21.9375 5.386719 21.835938 4.257812 22.011719 3.300781 C 22.054688 3.070312 22.234375 2.988281 22.3125 2.964844 C 22.480469 2.910156 22.65625 2.953125 22.78125 3.078125 C 22.890625 3.1875 22.9375 3.347656 22.90625 3.5 C 22.582031 4.988281 22.703125 5.476562 22.847656 5.734375 C 22.851562 5.75 22.859375 5.761719 22.871094 5.773438 C 23.15625 6.179688 23.25 6.632812 23.144531 7.121094 C 22.976562 7.917969 22.265625 8.792969 21.03125 9.722656 C 20.890625 9.828125 20.835938 10.011719 20.890625 10.175781 Z M 20.890625 10.175781"/>
    <path d="M14.726562 7.199219C14.941406 7.269531 15.167969 7.152344 15.238281 6.9375 15.308594 6.722656 15.191406 6.492188 14.980469 6.425781 13.972656 6.09375 13.042969 5.6875 12.21875 5.214844 12.089844 5.140625 11.9375 5.140625 11.8125 5.214844 10.980469 5.691406 10.042969 6.101562 9.023438 6.433594 8.808594 6.503906 8.691406 6.730469 8.761719 6.945312 8.816406 7.117188 8.976562 7.226562 9.148438 7.226562 9.191406 7.226562 9.234375 7.222656 9.273438 7.207031 10.265625 6.882812 11.183594 6.492188 12.015625 6.035156 12.835938 6.488281 13.746094 6.878906 14.726562 7.199219zM15.882812 15.800781C15.6875 15.691406 15.4375 15.761719 15.332031 15.960938 14.785156 16.933594 14.085938 17.757812 13.253906 18.414062 12.851562 18.730469 12.4375 19.003906 12.015625 19.226562 11.59375 19.003906 11.175781 18.730469 10.777344 18.414062 9.941406 17.761719 9.242188 16.933594 8.699219 15.957031 8.589844 15.761719 8.34375 15.691406 8.144531 15.800781 7.949219 15.910156 7.878906 16.160156 7.988281 16.355469 8.585938 17.425781 9.355469 18.332031 10.273438 19.054688 10.773438 19.449219 11.300781 19.785156 11.832031 20.050781 11.890625 20.078125 11.953125 20.089844 12.015625 20.089844 12.078125 20.089844 12.140625 20.078125 12.195312 20.050781 12.730469 19.785156 13.253906 19.449219 13.757812 19.054688 14.675781 18.332031 15.445312 17.425781 16.039062 16.355469 16.152344 16.160156 16.082031 15.910156 15.882812 15.800781zM15.882812 15.800781"/>
</svg>

<svg xmlns="http://www.w3.org/2000/svg" width="32" height="32" viewBox="0 0 24 24">
    <path d="M23.941 7.285a2.483 2.483 0 0 0-.386-1.957c-.028-.066-.121-.418.148-1.66A1.28 1.28 0 0 0 23.36 2.5a1.279 1.279 0 0 0-1.289-.313c-.449.137-.777.508-.86.965a6.876 6.876 0 0 0-.062 1.957c-.03-.015-.062-.027-.093-.043a1.2 1.2 0 0 0-1.153.094c-.359.23-.57.621-.57 1.07 0 .434.23.832.613 1.07.2.122.461.333.742.598-.457.41-1.058.848-1.75 1.274V5.977a.409.409 0 0 0-.355-.407c-3.012-.383-5.11-1.46-6.336-2.293a.413.413 0 0 0-.46 0c-1.227.832-3.325 1.91-6.34 2.293a.409.409 0 0 0-.356.407v3.21c-.7-.43-1.313-.87-1.774-1.289.278-.265.54-.476.743-.601.382-.234.609-.633.609-1.094 0-.422-.211-.812-.566-1.043a1.2 1.2 0 0 0-1.153-.094c-.031.016-.062.028-.097.043.07-.609.054-1.328-.059-1.957a1.244 1.244 0 0 0-.863-.965A1.277 1.277 0 1 0 .297 3.671c.27 1.24.18 1.59.148 1.657A2.483 2.483 0 0 0 .06 7.285c.16.766.675 1.555 1.539 2.356H1.41c-.672 0-1.222.546-1.222 1.222 0 .672.55 1.223 1.222 1.223l3.707-.004c.172 3.27 1.703 6.332 4.149 8.254.824.648 1.699 1.156 2.601 1.508.047.02.098.031.149.031.05 0 .101-.012.148-.031.899-.352 1.774-.86 2.598-1.508 2.445-1.922 3.976-4.984 4.152-8.25h3.676c.672 0 1.223-.55 1.223-1.223 0-.675-.551-1.222-1.223-1.222h-.188c.864-.801 1.38-1.59 1.54-2.356zM1.004 10.863c0-.226.18-.406.406-.406h1.313a.407.407 0 0 0 .386-.281.406.406 0 0 0-.14-.453C1.734 8.793 1.023 7.914.855 7.117a1.669 1.669 0 0 1 .297-1.383c.145-.261.266-.75-.058-2.238a.459.459 0 0 1 .593-.531.415.415 0 0 1 .301.336c.176.957.075 2.082-.129 2.496a.41.41 0 0 0 .11.496.41.41 0 0 0 .508.004c.242-.192.52-.36.804-.488.176-.079.32 0 .375.035a.447.447 0 0 1-.027.762c-.442.273-.938.75-1.192 1.011a.408.408 0 0 0 0 .567c.626.644 1.602 1.355 2.747 2.011.277.157.593.25.89.325.2.05.406.136.621.253a.41.41 0 0 0 .422-.015.412.412 0 0 0 .18-.383 27.707 27.707 0 0 0-.121-.965c-.035-.27-.063-.46-.063-.586V7.672c.196.066.371.176.489.312.597.696.601 2.364.406 3.696a.4.4 0 0 0 .09.32c.613.727 1.074 1.531 1.316 1.992l-.738.344c-.57-1.086-1.684-2.742-2.801-3.027a2.066 2.066 0 0 0-.316-.04H1.41a.408.408 0 0 1-.406-.406zm13.254 8.832a9.561 9.561 0 0 1-2.242 1.332 9.505 9.505 0 0 1-2.246-1.332c-2.22-1.742-3.63-4.511-3.832-7.484.722.41 1.652 1.707 2.18 2.832a.41.41 0 0 0 .37.238.438.438 0 0 0 .168-.039l1.48-.687a.411.411 0 0 0 .196-.543 12.58 12.58 0 0 0-1.496-2.395c.137-1.027.273-3.12-.617-4.16-.352-.414-.934-.668-1.516-.668a.408.408 0 0 0-.406.406v1.63c0 .179.031.398.07.695.012.078.024.16.035.246l-.129-.036a5.782 5.782 0 0 1-.37-.105V6.328c2.812-.414 4.84-1.402 6.109-2.226 1.273.824 3.3 1.812 6.113 2.226V9.61a4.769 4.769 0 0 1-.402.121l-.125.036c.011-.09.023-.172.03-.246.044-.301.071-.516.071-.696V7.195a.406.406 0 0 0-.406-.406c-.582 0-1.16.254-1.516.668-.89 1.035-.75 3.133-.617 4.16a12.57 12.57 0 0 0-1.492 2.395.413.413 0 0 0-.016.312c.04.102.114.184.211.23l1.477.688a.437.437 0 0 0 .172.035.41.41 0 0 0 .37-.234c.532-1.145 1.481-2.461 2.212-2.848-.203 2.98-1.61 5.754-3.836 7.5zm6.633-9.52c.054.169.21.282.386.282h1.313a.406.406 0 1 1 0 .813l-4.18.003s-.191.016-.285.04c-1.117.28-2.23 1.937-2.8 3.023l-.74-.344c.247-.465.704-1.262 1.317-1.992a.4.4 0 0 0 .09-.32c-.195-1.332-.191-3 .406-3.692.118-.14.293-.25.489-.316v1.156c0 .121-.028.313-.063.578-.035.25-.078.567-.12.969-.017.152.054.3.183.383.125.086.289.09.418.015.218-.117.422-.199.62-.25.298-.078.614-.168.891-.328 1.145-.652 2.122-1.367 2.747-2.011a.408.408 0 0 0 0-.567c-.254-.262-.747-.738-1.192-1.012a.456.456 0 0 1-.226-.398.43.43 0 0 1 .199-.363.39.39 0 0 1 .375-.032c.285.125.562.293.804.485a.409.409 0 0 0 .617-.5c-.203-.41-.304-1.54-.128-2.496a.427.427 0 0 1 .3-.336.454.454 0 0 1 .47.113c.109.11.155.27.124.422-.324 1.488-.203 1.977-.058 2.234a.081.081 0 0 0 .023.04c.285.406.379.859.274 1.347-.168.797-.88 1.672-2.114 2.602a.406.406 0 0 0-.14.453zm0 0"/>
    <path d="M14.727 7.2a.404.404 0 0 0 .511-.263.404.404 0 0 0-.258-.511 14.994 14.994 0 0 1-2.761-1.211.398.398 0 0 0-.406 0c-.833.476-1.77.887-2.79 1.219a.406.406 0 1 0 .25.773c.993-.324 1.91-.715 2.743-1.172.82.453 1.73.844 2.71 1.164zm0 0M15.883 15.8a.401.401 0 0 0-.551.16 8.24 8.24 0 0 1-3.316 3.267 8.029 8.029 0 0 1-1.239-.813A8.05 8.05 0 0 1 8.7 15.957a.408.408 0 0 0-.71.398 8.974 8.974 0 0 0 2.284 2.7c.5.394 1.028.73 1.559.996.059.027.121.039.184.039a.402.402 0 0 0 .18-.04 9.14 9.14 0 0 0 1.562-.995 8.907 8.907 0 0 0 2.281-2.7.402.402 0 0 0-.156-.554zm0 0"/>
</svg>
